X: 1
T: la Bella Lavanderina
O: Italia
R: tarantella, jig
Z: 2011 John Chambers <jc:trillian.mit.edu>
S: handwritten MS from Patrick Yacono
M: 6/8
L: 1/8
P: Play ABA'BABA'BABA''
K: D
"A"|: "A7"A,CE GFE | "D"DFA dAd | "A7"cBA GFE |1 "D"DFA dAF :|2 "D"D3 z2 ||
"B"[|] F |\
"D"AAA "G"B2B | "D"A3 F2F | "D"A2A "G"B2B | "D"A3 F2z |\
"D"A2A "G"B2B | "D"A3 F3 | "A7"G3 F2E | "D"Az2 z3 |
"D"A3 "G"B3 | "D"A3 Fz2 | "D"A3 "G"B2B | "D"A3 Fz2 |\
"D"A2A "G"B2B | "D"A3 Fz2 | "D"AAA "G"B2B | "D"A3 Fz2 |
"D"A3 A3 | "G//"Bz2 z3 | "A"A3 A3 | "D//"Fz2 z3 |\
"D"A3 "G"B3 | "D"A3 ^A3 | "Em"B3 "A7"c3 | "D"dz3 z3 ||
"A'"\
|: "A7"GEC cGE | "D"AFD dAF | "A7"GEC cAc |1 "D"dAF AFD :|2 "D"d3 z2 |]
"A''"\
|: "A7"A,CE GFE | "D"DFA dAd |1 "A7"cBA GFE | "D"DFA dAF :|2 "A7"cBA ABc | "D"d3- dz2 |]
%
W: La bella lavanderina che lava i fazzoletti
W: per i poveretti della citt\`a
W:
W: Fai un salto, fanne un altro
W: Fai la giravolta, falla un'altra volta
W: Guarda in su, guarda in gi\`u
W: Dai un bacio a chi vuoi tu!
W:
W: La bella lavanderina che lava i fazzoletti
W: per i poveretti della citt\`a
W:
W: Fai un salto, fanne un altro
W: Fai la riverenza, fai la penitenza
W: Guarda in su, guarda in gi\`u
W: Dai un bacio a chi vuoi tu!

%%sep 1 1 500
